X: 1
T: Morgan Meggen
T: Morgan Magan
C: Turlough O'Carolan
N: The title is often mispelled. ;-)
M: 2/4
L: 1/16
R: reel
S: handwritten MS from Rich Armstrong
K: G
D2 |\
"G"D2G2 G2AB | cBAG "Em"Bcd2 | "Am"e2A2 "A7"A2G2 | "D7"FGEF D2EF |\
"G"G4 GFGA | G2FE D3G | "D"FGA2 "A7"A2EG | "D7"F2D2 D2EF | 
"G"G2G2 "D7"AGAF | "G"G6 B2 | "Am"c3B A2Bc | "G"d2G2 "C"e4 |\
"G"d2B2 "D"cBAG | "D"AGFE D2EF | "G"G2G2 "D7"AGAF | "G"G6 |] 
dc |\
"G"B2d2 d2ef | g2G2 Bcd2 | g2G2 Bcd2 | "Am"edcB "D7"A3c |\
"G"BGBc d2B2 | "C"e2c2 "G"d2B2 | "Am"c2A2 "G"d2G2 | "D"F2D2 D2GF | 
"C"E2C2 C3D | E2C2 C3E | "D"F2D2 D2AG | "D7"FGEF D2Bc |\
"G"dBGd "C"edcB | "Am"cBAG "D"FGAF | "G"D2G2 "D7"AGAF | "G"G6 |] 
